X: 2
T: The Maid In The Meadow
R: jig
M: 6/8
L: 1/8
K: Gmaj
AB |:~c3 ~B3|AGA BGE|D (3EFG AGA|BdB A2B|~c3 ~B3|AGA BGE|D (3EFG AGA|1 BGF GAB:|2 BGF G2 D|||:GBd g (3ddd|ede gdB|GBd gdB|ABA AGE|GBd ~g3|ede gdB|~G2B AGA|BGF G2D:|


Tune 942	Setting 14134

